svgs/flashlight_tiramisu.svg

<svg width="192" height="192" viewBox="0 0 192 192" fill="none" xmlns="http://www.w3.org/2000/svg">
<path d="M122.297 76.5779C114.272 76.5779 70.1356 76.5779 70.1356 76.5779C62.1108 76.5779 62.1108 76.5779 62.1108 82.217V103.85C62.1108 105.344 62.9534 106.775 64.458 107.832L75.8131 115.812C77.3178 116.869 78.1604 118.3 78.1604 119.794V164.361C78.1604 170 78.1604 170 86.1852 170H106.247C114.272 170 114.272 170 114.272 164.361V119.794C114.272 118.3 115.115 116.869 116.619 115.812L127.974 107.832C129.479 106.775 130.322 105.344 130.322 103.85C130.322 103.85 130.322 87.856 130.322 82.217C130.322 76.5779 130.322 76.5779 122.297 76.5779Z" stroke="black" stroke-width="12"/>
<path d="M129.891 58.0917L140.926 42.5437" stroke="black" stroke-width="12" stroke-linecap="round"/>
<path d="M96.0227 41.0651L96.1433 22" stroke="black" stroke-width="12" stroke-linecap="round"/>
<path d="M62.6837 59.1024L51.6496 43.5544" stroke="black" stroke-width="12" stroke-linecap="round"/>
</svg>

<svg width="192" height="192" viewBox="0 0 192 192" fill="none" xmlns="http://www.w3.org/2000/svg"><path d="M122.297 76.578H70.136c-8.025 0-8.025 0-8.025 5.639v21.633c0 1.494.842 2.925 2.347 3.982l11.355 7.98c1.505 1.057 2.347 2.488 2.347 3.982v44.567c0 5.639 0 5.639 8.025 5.639h20.062c8.025 0 8.025 0 8.025-5.639v-44.567c0-1.494.843-2.925 2.347-3.982l11.355-7.98c1.505-1.057 2.348-2.488 2.348-3.982V82.217c0-5.64 0-5.64-8.025-5.64Z" stroke="#000" stroke-width="12"/><path d="m129.891 58.092 11.035-15.548M96.023 41.065 96.143 22M62.684 59.102 51.65 43.554" stroke="#000" stroke-width="12" stroke-linecap="round"/></svg>
